48x48/apps/meld.svg

<svg xmlns="http://www.w3.org/2000/svg" width="48" height="48" version="1.0">
 <path style="opacity:0.2" d="M 19,5 C 10.69,5 4,11.69 4,20 v 5 5 c 0,8.31 6.69,15 15,15 h 10 c 8.31,0 15,-6.69 15,-15 V 25 20 C 44,11.69 37.31,5 29,5 Z"/>
 <path style="fill:#3584e4" d="M 19 4 C 10.69 4 4 10.69 4 19 L 4 24 L 4 29 C 4 37.31 10.69 44 19 44 L 29 44 C 37.31 44 44 37.31 44 29 L 44 24 L 44 19 C 44 10.69 37.31 4 29 4 L 19 4 z"/>
 <path style="opacity:0.2;fill:#f4f4f7" d="M 19 4 C 10.69 4 4 10.69 4 19 L 4 20 C 4 11.69 10.69 5 19 5 L 29 5 C 37.31 5 44 11.69 44 20 L 44 19 C 44 10.69 37.31 4 29 4 L 19 4 z"/>
 <path style="opacity:0.2" d="M 7.109375,5 C 5.3867525,5 4,6.3680433 4,8.0683594 v 12.7910156 2.427734 c 0.9395252,2.376579 2.2934287,4.596913 4.1230469,6.541016 2.1390141,2.272853 5.3163591,4.173866 8.6054691,4.878906 3.289109,0.705033 6.687934,0.213659 9.273437,-2.292969 0.885562,-0.85854 1.633178,-2.130365 1.896485,-3.433593 0.263301,-1.303225 0.04422,-2.636142 -1,-3.623047 -0.331404,-0.313216 -0.821142,-0.579469 -1.31836,-0.667969 C 25.085921,24.601493 24.35959,24.608862 24,25 c 0.401225,0.35986 0.716815,0.939746 0.626953,1.431641 -0.09048,0.495229 -0.36151,0.984449 -0.681641,1.314453 -1.004967,1.035969 -2.3646,1.452189 -3.689453,1.191406 -1.32485,-0.260787 -2.617535,-0.999948 -3.490234,-1.876953 -1.908442,-1.917841 -2.763314,-4.488505 -2.720703,-6.925781 0.01419,-0.81243 0.116107,-1.632564 0.294922,-2.445313 0.715273,-3.251003 2.743083,-7.288208 5.048828,-9.4023436 C 20.8609,6.9372264 22.489311,5.8520341 24.222656,5 Z M 24,25 c -0.401225,-0.35986 -0.716815,-0.939746 -0.626953,-1.431641 0.09048,-0.495229 0.36151,-0.984449 0.681641,-1.314453 1.004967,-1.035969 2.3646,-1.452189 3.689453,-1.191406 1.32485,0.260787 2.617535,0.999948 3.490234,1.876953 1.908442,1.917841 2.763314,4.488505 2.720703,6.925781 -0.01419,0.81243 -0.116107,1.632564 -0.294922,2.445313 -0.715273,3.251003 -2.743083,7.288209 -5.048828,9.402344 C 27.1391,43.062774 25.510689,44.147965 23.777344,45 H 40.890625 C 42.613248,45 44,43.631957 44,41.931641 V 29.140625 26.712891 c -0.939525,-2.376579 -2.293429,-4.596913 -4.123047,-6.541016 -2.139015,-2.272853 -5.316359,-4.173866 -8.605469,-4.878906 -3.289109,-0.705033 -6.687934,-0.21366 -9.273437,2.292969 -0.885562,0.85854 -1.633178,2.130365 -1.896485,3.433593 -0.263301,1.303225 -0.04423,2.636142 1,3.623047 0.331404,0.313216 0.821142,0.579469 1.31836,0.667969 C 22.914079,25.398507 23.64041,25.39114 24,25 Z"/>
 <path style="fill:#ff9632" d="M 7.109375 4 C 5.3867525 4 4 5.3680433 4 7.0683594 L 4 19.859375 L 4 22.287109 C 4.9395252 24.663688 6.2934287 26.884022 8.1230469 28.828125 C 10.262061 31.100978 13.439406 33.001991 16.728516 33.707031 C 20.017625 34.412064 23.41645 33.92069 26.001953 31.414062 C 26.887515 30.555522 27.635131 29.283697 27.898438 27.980469 C 28.161739 26.677244 27.942662 25.344327 26.898438 24.357422 C 26.567034 24.044206 26.077296 23.777953 25.580078 23.689453 C 25.085921 23.601493 24.35959 23.608862 24 24 C 24.401225 24.35986 24.716815 24.939746 24.626953 25.431641 C 24.536473 25.92687 24.265443 26.41609 23.945312 26.746094 C 22.940345 27.782063 21.580712 28.198283 20.255859 27.9375 C 18.931009 27.676713 17.638324 26.937552 16.765625 26.060547 C 14.857183 24.142706 14.002311 21.572042 14.044922 19.134766 C 14.059112 18.322336 14.161029 17.502202 14.339844 16.689453 C 15.055117 13.43845 17.082927 9.4012445 19.388672 7.2871094 C 20.8609 5.9372264 22.489311 4.8520341 24.222656 4 L 7.109375 4 z M 24 24 C 23.598775 23.64014 23.283185 23.060254 23.373047 22.568359 C 23.463527 22.07313 23.734557 21.58391 24.054688 21.253906 C 25.059655 20.217937 26.419288 19.801717 27.744141 20.0625 C 29.068991 20.323287 30.361676 21.062448 31.234375 21.939453 C 33.142817 23.857294 33.997689 26.427958 33.955078 28.865234 C 33.940888 29.677664 33.838971 30.497798 33.660156 31.310547 C 32.944883 34.56155 30.917073 38.598756 28.611328 40.712891 C 27.1391 42.062774 25.510689 43.147965 23.777344 44 L 40.890625 44 C 42.613248 44 44 42.631957 44 40.931641 L 44 28.140625 L 44 25.712891 C 43.060475 23.336312 41.706571 21.115978 39.876953 19.171875 C 37.737938 16.899022 34.560594 14.998009 31.271484 14.292969 C 27.982375 13.587936 24.58355 14.079309 21.998047 16.585938 C 21.112485 17.444478 20.364869 18.716303 20.101562 20.019531 C 19.838261 21.322756 20.057337 22.655673 21.101562 23.642578 C 21.432966 23.955794 21.922704 24.222047 22.419922 24.310547 C 22.914079 24.398507 23.64041 24.39114 24 24 z"/>
 <path style="opacity:0.2;fill:#f4f4f7" d="M 7.109375 4 C 5.3867525 4 4 5.3680433 4 7.0683594 L 4 8.0683594 C 4 6.3680433 5.3867525 5 7.109375 5 L 22.4375 5 C 23.019846 4.6405897 23.612024 4.3001594 24.222656 4 L 7.109375 4 z M 28.798828 14.001953 C 26.33412 13.960214 23.937174 14.705966 21.998047 16.585938 C 21.112485 17.444478 20.364869 18.716303 20.101562 20.019531 C 19.996259 20.540737 19.973988 21.065595 20.044922 21.572266 C 20.061892 21.387764 20.064311 21.203909 20.101562 21.019531 C 20.364869 19.716303 21.112485 18.444478 21.998047 17.585938 C 24.58355 15.079308 27.982375 14.587936 31.271484 15.292969 C 34.560594 15.998009 37.737938 17.899022 39.876953 20.171875 C 41.706571 22.115978 43.060475 24.336312 44 26.712891 L 44 25.712891 C 43.060475 23.336312 41.706571 21.115978 39.876953 19.171875 C 37.737938 16.899022 34.560594 14.998009 31.271484 14.292969 C 30.449207 14.11671 29.620397 14.015866 28.798828 14.001953 z M 14.066406 19.837891 C 14.062116 19.936739 14.046645 20.036118 14.044922 20.134766 C 14.002311 22.572042 14.857183 25.142706 16.765625 27.060547 C 17.638324 27.937552 18.931009 28.676713 20.255859 28.9375 C 21.580712 29.198283 22.940345 28.782063 23.945312 27.746094 C 24.265443 27.41609 24.536473 26.92687 24.626953 26.431641 C 24.665504 26.220615 24.618644 25.994485 24.533203 25.775391 C 24.404676 26.146086 24.190492 26.493353 23.945312 26.746094 C 22.940345 27.782063 21.580712 28.198283 20.255859 27.9375 C 18.931009 27.676713 17.638324 26.937552 16.765625 26.060547 C 15.03991 24.326333 14.184576 22.058385 14.066406 19.837891 z M 23.466797 23.224609 C 23.427506 23.337931 23.394231 23.452412 23.373047 23.568359 C 23.331546 23.795533 23.382468 24.041023 23.482422 24.275391 C 23.682166 24.220846 23.868805 24.142706 24 24 C 23.770903 23.794522 23.580516 23.516218 23.466797 23.224609 z M 24 24 C 24.215926 24.193664 24.401104 24.451505 24.517578 24.724609 C 24.865309 24.629654 25.266213 24.633585 25.580078 24.689453 C 26.077296 24.777953 26.567034 25.044206 26.898438 25.357422 C 27.525037 25.949629 27.848647 26.667524 27.955078 27.427734 C 28.058057 26.30813 27.794927 25.204702 26.898438 24.357422 C 26.567034 24.044206 26.077296 23.777953 25.580078 23.689453 C 25.085921 23.601493 24.35959 23.608862 24 24 z M 33.933594 29.162109 C 33.90255 29.87734 33.817259 30.596485 33.660156 31.310547 C 32.944883 34.56155 30.917073 38.598756 28.611328 40.712891 C 27.1391 42.062774 25.510689 43.147965 23.777344 44 L 25.5625 44 C 26.633205 43.339186 27.657745 42.587229 28.611328 41.712891 C 30.917073 39.598756 32.944883 35.56155 33.660156 32.310547 C 33.838971 31.497798 33.940888 30.677664 33.955078 29.865234 C 33.959158 29.631873 33.946106 29.397226 33.933594 29.162109 z"/>
</svg>

<svg xmlns="http://www.w3.org/2000/svg" width="48" height="48" version="1.0"><path style="opacity:.2" d="M19 5C10.69 5 4 11.69 4 20v10c0 8.31 6.69 15 15 15h10c8.31 0 15-6.69 15-15V20c0-8.31-6.69-15-15-15z"/><path style="fill:#3584e4" d="M19 4C10.69 4 4 10.69 4 19v10c0 8.31 6.69 15 15 15h10c8.31 0 15-6.69 15-15V19c0-8.31-6.69-15-15-15H19z"/><path style="opacity:.2;fill:#f4f4f7" d="M19 4C10.69 4 4 10.69 4 19v1c0-8.31 6.69-15 15-15h10c8.31 0 15 6.69 15 15v-1c0-8.31-6.69-15-15-15H19z"/><path style="opacity:.2" d="M7.11 5C5.386 5 4 6.368 4 8.068V23.287c.94 2.377 2.293 4.597 4.123 6.541 2.14 2.273 5.316 4.174 8.606 4.879 3.289.705 6.687.214 9.273-2.293.886-.858 1.633-2.13 1.896-3.434.264-1.303.045-2.636-1-3.623a2.694 2.694 0 0 0-1.318-.668c-.494-.088-1.22-.08-1.58.311.401.36.717.94.627 1.432-.09.495-.362.984-.682 1.314-1.005 1.036-2.364 1.452-3.69 1.192-1.324-.261-2.617-1-3.49-1.877-1.908-1.918-2.763-4.489-2.72-6.926.014-.813.116-1.633.295-2.446.715-3.25 2.743-7.288 5.049-9.402A20.498 20.498 0 0 1 24.223 5zM24 25c-.401-.36-.717-.94-.627-1.432.09-.495.362-.984.682-1.314 1.005-1.036 2.364-1.452 3.69-1.192 1.324.261 2.617 1 3.49 1.877 1.908 1.918 2.763 4.489 2.72 6.926a12.406 12.406 0 0 1-.295 2.446c-.715 3.25-2.743 7.288-5.049 9.402A20.498 20.498 0 0 1 23.777 45h17.114C42.613 45 44 43.632 44 41.932V26.713c-.94-2.377-2.293-4.597-4.123-6.541-2.14-2.273-5.316-4.174-8.606-4.879-3.289-.705-6.687-.214-9.273 2.293-.886.858-1.633 2.13-1.896 3.434-.264 1.303-.045 2.636 1 3.623.331.313.82.579 1.318.668.494.088 1.22.08 1.58-.311z"/><path style="fill:#ff9632" d="M7.11 4C5.386 4 4 5.368 4 7.068V22.287c.94 2.377 2.293 4.597 4.123 6.541 2.14 2.273 5.316 4.174 8.606 4.879 3.289.705 6.687.214 9.273-2.293.886-.858 1.633-2.13 1.896-3.434.264-1.303.045-2.636-1-3.623a2.694 2.694 0 0 0-1.318-.668c-.494-.088-1.22-.08-1.58.311.401.36.717.94.627 1.432-.09.495-.362.984-.682 1.314-1.005 1.036-2.364 1.452-3.69 1.192-1.324-.261-2.617-1-3.49-1.877-1.908-1.918-2.763-4.489-2.72-6.926.014-.813.116-1.633.295-2.446.715-3.25 2.743-7.288 5.049-9.402A20.498 20.498 0 0 1 24.223 4H7.109zM24 24c-.401-.36-.717-.94-.627-1.432.09-.495.362-.984.682-1.314 1.005-1.036 2.364-1.452 3.69-1.192 1.324.261 2.617 1 3.49 1.877 1.908 1.918 2.763 4.489 2.72 6.926a12.406 12.406 0 0 1-.295 2.446c-.715 3.25-2.743 7.288-5.049 9.402A20.498 20.498 0 0 1 23.777 44h17.114C42.613 44 44 42.632 44 40.932V25.713c-.94-2.377-2.293-4.597-4.123-6.541-2.14-2.273-5.316-4.174-8.606-4.879-3.289-.705-6.687-.214-9.273 2.293-.886.858-1.633 2.13-1.896 3.434-.264 1.303-.045 2.636 1 3.623.331.313.82.579 1.318.668.494.088 1.22.08 1.58-.311z"/><path style="opacity:.2;fill:#f4f4f7" d="M7.11 4C5.386 4 4 5.368 4 7.068v1C4 6.368 5.387 5 7.11 5h15.328c.582-.36 1.174-.7 1.785-1H7.109zm21.689 10.002c-2.465-.042-4.862.704-6.801 2.584-.886.858-1.633 2.13-1.896 3.434a4.615 4.615 0 0 0-.057 1.552c.017-.184.02-.368.057-.552.263-1.304 1.01-2.576 1.896-3.434 2.586-2.507 5.984-2.998 9.273-2.293 3.29.705 6.467 2.606 8.606 4.879 1.83 1.944 3.183 4.164 4.123 6.54v-1c-.94-2.376-2.293-4.596-4.123-6.54-2.14-2.273-5.316-4.174-8.606-4.879a12.852 12.852 0 0 0-2.472-.291zm-14.733 5.836c-.004.099-.02.198-.021.297-.043 2.437.812 5.008 2.72 6.926.873.877 2.166 1.616 3.49 1.877 1.326.26 2.685-.156 3.69-1.192.32-.33.591-.82.682-1.314.039-.211-.008-.438-.094-.657-.128.371-.343.718-.588.971-1.005 1.036-2.364 1.452-3.69 1.192-1.324-.261-2.617-1-3.49-1.877-1.725-1.735-2.58-4.003-2.699-6.223zm9.4 3.387c-.038.113-.072.227-.093.343-.041.228.01.473.11.707.2-.054.386-.132.517-.275a2.079 2.079 0 0 1-.533-.775zM24 24c.216.194.401.452.518.725a2.544 2.544 0 0 1 1.062-.036c.497.089.987.355 1.318.668.627.593.95 1.31 1.057 2.07.103-1.119-.16-2.222-1.057-3.07a2.694 2.694 0 0 0-1.318-.668c-.494-.088-1.22-.08-1.58.311zm9.934 5.162a12.512 12.512 0 0 1-.274 2.149c-.715 3.25-2.743 7.288-5.049 9.402A20.498 20.498 0 0 1 23.777 44h1.785a20.128 20.128 0 0 0 3.05-2.287c2.305-2.114 4.333-6.151 5.048-9.402.179-.813.28-1.633.295-2.446.004-.233-.009-.468-.021-.703z"/></svg>
